icons/disqus-line.svg

<svg viewBox="0 0 24 24" fill="currentColor" xmlns="http://www.w3.org/2000/svg">
    <path d="M11.9971 2C17.52 2 21.9971 6.47715 21.9971 12C21.9971 17.5228 17.52 22 11.9971 22C9.69135 22 7.50495 21.2156 5.74846 19.8078L1.03027 20.3973L2.74948 15.8116C2.2553 14.614 1.99712 13.3245 1.99712 12C1.99712 6.47715 6.47427 2 11.9971 2ZM11.9971 4C7.57884 4 3.99712 7.58172 3.99712 12C3.99712 13.178 4.25126 14.3181 4.73544 15.3619L4.91161 15.7418L4.06396 18.0027L6.37947 17.7134L6.71733 18.0105C8.16756 19.2855 10.0256 20 11.9971 20C16.4154 20 19.9971 16.4183 19.9971 12C19.9971 7.58172 16.4154 4 11.9971 4ZM8.04712 7.0003H11.8367C15.2578 7.0003 17.2778 8.95633 17.3766 11.7287L17.3805 11.9436V11.9714C17.3805 14.7848 15.4185 16.8928 12.043 16.9963L11.7806 17.0003H8.04712V7.0003H11.8367H8.04712ZM11.8785 9.45793H10.7701V14.5434H11.8785C13.4439 14.5434 14.5032 13.6979 14.5824 12.1978L14.5871 12.0147V11.9868C14.5871 10.3861 13.5065 9.45793 11.8785 9.45793Z"/>
</svg>

<svg xmlns="http://www.w3.org/2000/svg" viewBox="0 0 24 24">
    <g>
        <path fill="none" d="M0 0H24V24H0z"/>
        <path d="M11.95 2c5.523 0 10 4.477 10 10s-4.477 10-10 10c-2.306 0-4.492-.784-6.249-2.192l-4.718.59 1.72-4.586C2.207 14.614 1.95 13.324 1.95 12c0-5.523 4.477-10 10-10zm0 2c-4.418 0-8 3.582-8 8 0 1.178.254 2.318.738 3.362l.176.38-.847 2.26 2.315-.289.338.297C8.12 19.286 9.978 20 11.95 20c4.418 0 8-3.582 8-8s-3.582-8-8-8zM8 7h3.79c3.42 0 5.44 1.956 5.54 4.729l.003.215v.027c0 2.814-1.962 4.922-5.337 5.025l-.263.004H8V7h3.79H8zm3.831 2.458h-1.108v5.085h1.108c1.566 0 2.625-.845 2.704-2.345l.005-.183v-.028c0-1.6-1.08-2.53-2.709-2.53z"/>
    </g>
</svg>
